X:1
T:Das Keff
C:trad. rgion de Landerneau, Bretagne, fichier ABC par Bernard Loffet
L:1/8
Q:286
M:2/4
K:C
 z3A | \
M:3/4
 [BA,,]c [dA,]c [BA,]A | [G2G,,2] [GG,]c [B3/2G,3/2]c/ | \
M:2/4
 [A2A,,2] [AA,]A | \
M:3/4
 [BF,,]c [dF,]c [BF,]A | [G2G,,2] [GG,]c [B3/2G,3/2]c/ | \
M:2/4
 [A2A,,2] [A2A,2] | \
M:3/4
|: [AA,,]e [eG,]d [e2C,2] | C,,d [cC,]e [d/G,/]e/d | \
M:2/4
 [c2A,,2] [cA,]A | \
M:3/4
 [BF,,]c [dF,]c [BF,]A | [G2G,,2] [GG,]c [B3/2G,3/2]c/ | \
M:2/4
 [A2A,,2] [A2A,2] :| \
W:Created with TablEdit http://www.tabledit.com/ by Bernard Loffet
